release/img/pow.svg

<svg width="63" height="63" viewBox="0 0 63 63" fill="none" xmlns="http://www.w3.org/2000/svg">
<path d="M19.0897 19.0548C19.0897 16.6199 19.5972 14.3689 20.9916 12.4407C22.1323 10.8802 23.5679 9.91608 25.4677 10.0058C27.0746 10.0999 28.2999 11.0192 29.2281 12.351C30.8762 14.6469 31.3837 17.3105 31.13 20.2028C30.9608 22.2655 30.3688 24.104 29.1869 25.7587C27.7079 27.8214 25.3832 28.6061 23.3142 27.6869C23.1183 27.5972 22.9306 27.4941 22.7511 27.3864C22.4706 27.216 22.2086 27.0232 21.9631 26.8125C21.0246 26.0008 20.3542 24.9022 19.8509 23.6466C19.2589 22.1758 19.0052 20.6602 19.0052 19.0548H19.0897Z" fill="black"/>
<path d="M43.001 25.7542C44.3954 23.7812 44.9854 21.4853 44.9854 18.8217H45.0287C45.0101 18.6871 44.9998 18.5078 44.9875 18.306L44.9565 17.8307C44.9441 17.6692 44.9276 17.5078 44.9029 17.3508C44.7812 16.3374 44.5605 15.3644 44.2098 14.4586C43.8323 13.481 43.3022 12.5842 42.5782 11.7949C41.2683 10.4183 39.7048 9.72774 37.8896 10.1896C36.3693 10.6022 35.2286 11.6559 34.4242 13.0819C32.4398 16.6603 32.3552 20.3822 33.9188 24.1489C34.0405 24.4583 34.1787 24.7542 34.3313 25.0412C34.5562 25.4538 34.814 25.8349 35.109 26.1802C35.6639 26.8349 36.3466 27.364 37.1717 27.7272C39.2407 28.6017 41.522 27.8214 43.001 25.7542Z" fill="black"/>
<path d="M54.9567 30.1173C54.6184 32.8751 53.4777 35.1217 51.1138 36.3638C48.917 37.5566 46.4231 36.5476 45.367 34.1127C43.888 30.763 45.1979 25.9874 48.0713 24.0592C50.8601 22.1758 54.0697 23.6915 54.8309 27.225C54.8721 27.4537 54.9154 27.6869 54.9154 27.9604C54.9154 28.068 54.9237 28.1757 54.9381 28.2833L55 28.651V29.5209C55 29.5209 54.9567 29.9335 54.9154 30.1173H54.9567Z" fill="black"/>
<path d="M31.8499 28.6017C33.2443 28.6017 34.5314 28.8214 35.7361 29.2384C36.3899 29.4626 37.0191 29.7451 37.6255 30.0814C38.2402 30.4222 38.8343 30.8168 39.4098 31.2653C43.5085 34.4311 46.0436 38.7494 47.1843 44.0317C47.5226 45.6371 47.6917 47.2917 47.3534 48.8971C46.8872 51.0539 45.5795 52.2961 43.6343 52.7534C41.8191 53.166 40.0018 52.9373 38.1866 52.6189C37.607 52.5203 37.0315 52.4082 36.456 52.2961C35.1461 52.0449 33.8466 51.7938 32.5244 51.6997C32.2686 51.6817 32.0128 51.6772 31.757 51.6862C31.4229 51.6952 31.0887 51.7266 30.7545 51.7714L30.1419 51.8566L29.6097 51.9463L28.8486 52.0674C28.1761 52.1705 27.5057 52.3005 26.8374 52.4261C25.1109 52.7534 23.3905 53.0808 21.6248 52.9821C20.3996 52.8925 19.2176 52.6189 18.2028 51.6997C17.1054 50.6862 16.6413 49.3096 16.5979 47.7939C16.5319 45.4711 16.9527 43.2246 17.7036 41.0901C17.916 40.4847 18.1553 39.8883 18.4152 39.3009C19.8942 36.0858 21.9219 33.3773 24.6241 31.3101C25.5709 30.5926 26.5486 30.0052 27.5532 29.5658C28.9249 28.9694 30.3441 28.6465 31.8065 28.6465L31.8499 28.6017Z" fill="black"/>
<path d="M18.2461 34.9871C18.9639 33.9289 19.3022 32.6912 19.3434 31.4043C19.3434 31.05 19.3187 30.7227 19.2919 30.4043L19.2589 30.0276C18.9226 27.6376 17.9924 25.6197 16.0905 24.2385C14.8529 23.3327 13.4935 23.122 12.3012 23.5076C11.1358 23.8843 10.1292 24.8305 9.54336 26.2609C9.2257 27.0053 9.06274 27.7631 9.0153 28.5389C8.98024 29.1039 9.00705 29.6734 9.07925 30.2563C9.41754 32.6419 10.3458 34.6194 12.2043 35.9961C14.2753 37.5566 16.8104 37.0992 18.2461 34.9871Z" fill="black"/>
</svg>

<svg xmlns="http://www.w3.org/2000/svg" width="63" height="63" fill="none" viewBox="0 0 63 63">
  <path fill="#000" d="M19.09 19.055c0-2.435.507-4.686 1.902-6.614 1.14-1.56 2.576-2.525 4.476-2.435 1.607.094 2.832 1.013 3.76 2.345 1.648 2.296 2.156 4.96 1.902 7.852-.17 2.063-.761 3.901-1.943 5.556-1.48 2.062-3.804 2.847-5.873 1.928a5.758 5.758 0 0 1-1.35-.875c-.94-.811-1.61-1.91-2.113-3.165-.592-1.471-.846-2.987-.846-4.592h.085Zm23.911 6.699c1.394-1.973 1.984-4.269 1.984-6.932h.044a7.134 7.134 0 0 1-.042-.516l-.03-.475a6.111 6.111 0 0 0-.054-.48c-.122-1.014-.343-1.987-.693-2.892a8.332 8.332 0 0 0-1.632-2.664c-1.31-1.377-2.873-2.067-4.688-1.605-1.52.412-2.661 1.466-3.466 2.892-1.984 3.578-2.069 7.3-.505 11.067.122.31.26.605.412.892.225.413.483.794.778 1.14a5.679 5.679 0 0 0 2.063 1.546c2.069.875 4.35.094 5.829-1.973Zm11.956 4.363c-.339 2.758-1.48 5.005-3.843 6.247-2.197 1.193-4.69.184-5.747-2.251-1.479-3.35-.17-8.126 2.704-10.054 2.79-1.883 5.999-.367 6.76 3.166.041.229.084.462.084.735 0 .108.009.216.023.323l.062.368v.87s-.043.412-.085.596h.042ZM31.85 28.602a11.767 11.767 0 0 1 5.776 1.48c.614.34 1.208.735 1.784 1.183 4.099 3.166 6.634 7.484 7.774 12.767.339 1.605.508 3.26.17 4.865-.467 2.157-1.774 3.4-3.72 3.856-1.815.413-3.632.184-5.447-.134-.58-.099-1.155-.21-1.731-.323-1.31-.251-2.61-.502-3.932-.596a7.279 7.279 0 0 0-.767-.014c-.334.01-.668.04-1.003.085l-.612.086-.532.09-.761.12c-.673.103-1.343.233-2.012.36-1.726.326-3.447.654-5.212.555-1.225-.09-2.407-.363-3.422-1.282-1.098-1.014-1.562-2.39-1.605-3.906-.066-2.323.355-4.57 1.106-6.704a24.31 24.31 0 0 1 .711-1.79c1.48-3.214 3.507-5.923 6.21-7.99a14.472 14.472 0 0 1 2.928-1.744c1.372-.597 2.791-.92 4.253-.92l.044-.044Zm-13.604 6.385c.718-1.058 1.056-2.296 1.097-3.583 0-.354-.024-.681-.051-1l-.033-.376c-.336-2.39-1.267-4.408-3.169-5.79-1.237-.905-2.597-1.116-3.789-.73-1.165.376-2.172 1.323-2.758 2.753a6.793 6.793 0 0 0-.528 2.278 9.262 9.262 0 0 0 .064 1.717c.339 2.386 1.267 4.363 3.125 5.74 2.071 1.56 4.606 1.103 6.042-1.009Z"/>
</svg>
